!!!OTL: Dakai sangmen changxinjing
!!!ARE: Asia, China,ÿJiangxi Guixi
!! IV, 200
!!!SCT: C1960
!!!YEM: Copyright 1995, estate of Helmut Schaffrath.
**kern
*ICvox
*Ivox
*M2/4
*k[]
*C:
{8cc
8g
8a
8g
=1
8cc
8g
16a
16cc
[8dd
=2
2dd]}
=3
{8cc
8dd
8a
8g
=4
8cc
8a
8g
[8g
=5
4g]
4g}
=6
{8d
8g
8a
8g
=7
8dd
8cc
8a
[8dd
=8
2dd]}
=9
{8ee
16dd
16cc
8a
16g
16a
=10
8cc
8a
[4g
=11
4g]
4g}
==
!!!AGN: Shange
!!!AMT: simple duple
!!!AIN: vox
!!!EED: Helmut Schaffrath
!!!EEV: 1.0
*-
!!!ONB: Tied note syntax fixed by Craig Sapp, 2004/05/03/
